X:1
T:Title
%%score { ( 1 4 ) | ( 2 3 ) }
L:1/8
M:6/8
K:G
V:1 treble nm="Grand Piano"
V:4 treble 
V:2 bass 
V:3 bass 
V:1
 z3 z2[Q:1/4=78] [B,D]/[B,D]/ | [B,D][B,E][B,F] [B,G][CA][B,G] | GF>=F ^F2 D/D/ | cBA EF>E | %4
 E3 D2 D/D/ | DEF GAG |[M:5/8] GF>[FA] [Fd]2 |[M:1/8] [Ad]/[Ad]/ |[M:3/4] dB GF G[DF] | %9
[M:5/8] [^CE]3 D2 |[M:1/8] [Fd]/[Fd]/ |[M:3/4] dB ed Be | d4[K:bass][K:treble] z2 | Bc B A2 A, | %14
 AB A G2 [B,D]/[B,D]/ | [DB][EB] [FB] [GB]2 [DB] | [Ec][EG] [^DA] B2 B/c/ | de [EAc] [DGB]2 [CFA] | %18
[M:5/8] G-G- G3 |] %19
V:2
 z3 z2 [G,,G,]/[G,,G,]/ | [G,,G,][G,,G,][G,,G,] [G,,G,][G,,G,][G,,G,] | %2
 [D,A,C][D,A,C]>[D,^G,C] [D,A,C]2 [D,F,C]/[D,F,C]/ | [D,F,E][D,G,D][D,F,C] [D,G,C][D,A,C]>[D,G,C] | %4
 [G,C]3 [G,B,]2 [G,B,]/[G,B,]/ | [G,B,][G,B,][G,B,] [G,B,][G,C][G,B,] | %6
[M:5/8] [D,A,C][D,A,D]>[D,D] [D,A,]2 |[M:1/8] [F,C]/[F,C]/ | %8
[M:3/4][K:treble] [G,B,G][G,DG] [G,B,E][A,D] [A,E][K:bass][A,,A,] |[M:5/8] [A,,G,]3 [D,F,]2 | %10
[M:1/8] [D,C]/[D,C]/ |[M:3/4][K:treble] [G,G]-[G,DG] [G,CG][G,G]- [G,DG][G,CG] | %12
 [B,G-]3 [G,DG]2 [DG]/[DG]/ | [DG][EG] [DG] .[CF]3 | %14
 [CF][DG] [CF][K:bass] [B,D]2 [G,,G,]/[G,,G,]/ | [G,,G,][G,,G,] [G,,G,] [G,,G,]2 [G,,G,] | %16
 [C,G,][C,C] [C,G,][K:treble] [G,D]2 [G,DG]/[A,DF]/ | .[B,D]2[K:bass] z2 z2 |[M:5/8] z2 C B,2 |] %19
V:3
 x6 | x6 | x6 | x6 | x6 | x6 |[M:5/8] x5 |[M:1/8] x |[M:3/4][K:treble] x5[K:bass] x |[M:5/8] x5 | %10
[M:1/8] x |[M:3/4][K:treble] .B,2 z B, z2 | .G,2 z2 z2 | x6 | x3[K:bass] x3 | x6 | %16
 x3[K:treble] x3 | G-[CG][K:bass] A, D,2 D, |[M:5/8] G,,-G,,- G,,3 |] %19
V:4
 x6 | x6 | x6 | x6 | x6 | x6 |[M:5/8] x5 |[M:1/8] x |[M:3/4] x6 |[M:5/8] x5 |[M:1/8] x | %11
[M:3/4] x6 | z[K:bass] B,, D,[K:treble] B2 B/B/ | x6 | x6 | x6 | x6 | x6 |[M:5/8] [B,D]2 E D2 |] %19

